assets/icons/24px/twitter.svg

<svg width="25" height="24" viewBox="0 0 25 24" fill="none" xmlns="http://www.w3.org/2000/svg">
<g clip-path="url(#clip0_448_1806)">
<path d="M22.1667 4.5C21.6667 4.5 20.9064 5.16183 19.9461 5.35418C19.1797 4.5214 18.0887 4 16.8806 4C14.5616 4 12.6808 5.92164 12.6808 8.29284C12.6808 8.62816 12.7187 8.95427 12.789 9.26932C8.33607 9.26932 6.80066 5.04585 5.26525 5.04585C3.72984 5.04585 3.72984 6.8756 3.72984 7.66047C3.72984 10.4026 3.87276 13.1645 8.66666 16C6.91668 17.4013 3.21804 18.119 2.70624 19.0719C2.19443 20.0249 6.77253 21 9.14378 21C16.3605 21 21.4802 17.1201 21.1667 10C23.1667 7.5 22.6667 4.5 22.1667 4.5Z" stroke="white" stroke-width="2" stroke-linejoin="round"/>
</g>
<defs>
<clipPath id="clip0_448_1806">
<rect width="24" height="24" fill="white" transform="translate(0.666656)"/>
</clipPath>
</defs>
</svg>

<svg width="25" height="24" fill="none" xmlns="http://www.w3.org/2000/svg"><g clip-path="url(#clip0_448_1806)"><path d="M22.167 4.5c-.5 0-1.26.662-2.22.854A4.157 4.157 0 0 0 16.88 4c-2.32 0-4.2 1.922-4.2 4.293 0 .335.038.661.108.976-4.453 0-5.988-4.223-7.524-4.223-1.535 0-1.535 1.83-1.535 2.614 0 2.743.143 5.505 4.937 8.34-1.75 1.401-5.449 2.119-5.96 3.072C2.193 20.025 6.772 21 9.143 21c7.216 0 12.336-3.88 12.023-11 2-2.5 1.5-5.5 1-5.5z" stroke="#fff" stroke-width="2" stroke-linejoin="round"/></g><defs><clipPath id="clip0_448_1806"><path fill="#fff" transform="translate(.667)" d="M0 0H24V24H0z"/></clipPath></defs></svg>
